arrange-send-to-back.svg

<svg fill="currentColor" viewBox="0 0 24 24"><path d="M2 2h9v9H2zm7 2H4v5h5zm13 9v9h-9v-9zm-7 7h5v-5h-5zm1-12v3h-3V8zm-5 8H8v-3h3z"/></svg>

<svg  viewBox="0 0 24 24" fill="currentColor"><path  d="M2,2H11V11H2V2M9,4H4V9H9V4M22,13V22H13V13H22M15,20H20V15H15V20M16,8V11H13V8H16M11,16H8V13H11V16Z"/></svg>
